src/svg/film.svg

<svg version="1.2" baseProfile="tiny" xmlns="http://www.w3.org/2000/svg" width="24" height="24" viewBox="0 0 24 24"><g><path d="M8 8v7h8v-7h-8zm7 6h-6v-5h6v5zM17 2h-3v2h-4v-2h-3c-1.654 0-3 1.346-3 3v13c0 1.654 1.346 3 3 3h3v-2h4v2h3c1.654 0 3-1.346 3-3v-13c0-1.654-1.346-3-3-3zm1 4c-.553 0-1 .447-1 1s.447 1 1 1v1c-.553 0-1 .447-1 1s.447 1 1 1v1c-.553 0-1 .447-1 1s.447 1 1 1v1c-.553 0-1 .447-1 1s.447 1 1 1v1c0 .551-.448 1-1 1h-1v-2h-8v2h-1c-.552 0-1-.449-1-1v-1c.553 0 1-.447 1-1s-.447-1-1-1v-1c.553 0 1-.447 1-1s-.447-1-1-1v-1c.553 0 1-.447 1-1s-.447-1-1-1v-1c.553 0 1-.447 1-1s-.447-1-1-1v-1c0-.551.448-1 1-1h1v2h8v-2h1c.552 0 1 .449 1 1v1z"/></g></svg>

<?xml version="1.0" encoding="iso-8859-1"?>
<!-- Generator: Adobe Illustrator 16.2.1, SVG Export Plug-In . SVG Version: 6.00 Build 0)  -->
<svg version="1.2" baseProfile="tiny" xmlns="http://www.w3.org/2000/svg" xmlns:xlink="http://www.w3.org/1999/xlink" x="0px"
	 y="0px" width="24px" height="24px" viewBox="0 0 24 24" xml:space="preserve">
<g id="Layer_1">
	<path d="M8,8v7h8V8H8z M15,14H9V9h6V14z"/>
	<path d="M17,2h-3v2h-4V2H7C5.346,2,4,3.346,4,5v13c0,1.654,1.346,3,3,3h3v-2h4v2h3c1.654,0,3-1.346,3-3V5C20,3.346,18.654,2,17,2z
		 M18,6c-0.553,0-1,0.447-1,1s0.447,1,1,1v1c-0.553,0-1,0.447-1,1s0.447,1,1,1v1c-0.553,0-1,0.447-1,1s0.447,1,1,1v1
		c-0.553,0-1,0.447-1,1s0.447,1,1,1v1c0,0.551-0.448,1-1,1h-1v-2H8v2H7c-0.552,0-1-0.449-1-1v-1c0.553,0,1-0.447,1-1s-0.447-1-1-1
		v-1c0.553,0,1-0.447,1-1s-0.447-1-1-1v-1c0.553,0,1-0.447,1-1S6.553,9,6,9V8c0.553,0,1-0.447,1-1S6.553,6,6,6V5
		c0-0.551,0.448-1,1-1h1v2h8V4h1c0.552,0,1,0.449,1,1V6z"/>
</g>
<g id="nyt_x5F_exporter_x5F_info" display="none">
</g>
</svg>
